www/assets/icons/format_align_center.svg

<svg xmlns="http://www.w3.org/2000/svg" width="24" height="24" viewBox="0 0 24 24" fill='currentColor'><path d="M7 15v2h10v-2zm-4 6h18v-2H3zm0-8h18v-2H3zm4-6v2h10V7zM3 3v2h18V3z"/></svg>

<svg width="24" height="24" viewBox="0 0 24 24" xmlns="http://www.w3.org/2000/svg" fill='currentColor'><path d="M7 15V17H17V15H7ZM3 21H21V19H3V21ZM3 13H21V11H3V13ZM7 7V9H17V7H7ZM3 3V5H21V3H3Z"/></svg>
